X: 26788
T: Miller Of Drone, The
R: strathspey
M: 4/4
K: Amajor
c>B|:A>FF<A E>FE>C|(3A,A,A, d>c B2 (3BcB|A>FF<A E>FE>C|D>FE<G A2 (3AcB|
A>FF<A E>FE>C|(3A,A,A, d>c B2 (3Bcd|e>Bc<G A>EF>C|D>FE<G A2 c>B:|
|:e>ce<a e>e f/e/d/c/|e>c e<a f2 (3fga|e>ce<a e>e f/e/d/c/|d>B c<A F2 c>d|
e>ce<a e>e f/e/d/c/|e>f a<=g f>e f>^g|(3agf (3efg (3aed (3cBA|(3dcB (3cBA (3Bfe (3dcB:|

